svgs/frozen.svg

<svg width="192" height="192" viewBox="0 0 192 192" fill="none" xmlns="http://www.w3.org/2000/svg">
<path d="M96 22L96 170" stroke="black" stroke-width="12" stroke-linecap="round" stroke-linejoin="round"/>
<path d="M112 157L96 139L80 157" stroke="black" stroke-width="12" stroke-linecap="round" stroke-linejoin="round"/>
<path d="M80 36L96 54L112 36" stroke="black" stroke-width="12" stroke-linecap="round" stroke-linejoin="round"/>
<path d="M31.9141 59L160.086 133" stroke="black" stroke-width="12" stroke-linecap="round" stroke-linejoin="round"/>
<path d="M156.828 112.644L133.239 117.5L140.828 140.356" stroke="black" stroke-width="12" stroke-linecap="round" stroke-linejoin="round"/>
<path d="M36.0385 79.8564L59.627 75L52.0385 52.1436" stroke="black" stroke-width="12" stroke-linecap="round" stroke-linejoin="round"/>
<path d="M31.9141 133L160.086 59" stroke="black" stroke-width="12" stroke-linecap="round" stroke-linejoin="round"/>
<path d="M140.828 51.6436L133.239 74.5L156.828 79.3564" stroke="black" stroke-width="12" stroke-linecap="round" stroke-linejoin="round"/>
<path d="M52.0385 139.856L59.627 117L36.0385 112.144" stroke="black" stroke-width="12" stroke-linecap="round" stroke-linejoin="round"/>
</svg>

<svg xmlns="http://www.w3.org/2000/svg" width="192" height="192" fill="none" viewBox="0 0 192 192"><path stroke="#000" stroke-linecap="round" stroke-linejoin="round" stroke-width="12" d="M96 22v148m16-13-16-18-16 18m0-121 16 18 16-18M31.914 59l128.172 74m-3.258-20.356-23.589 4.856 7.589 22.856m-104.789-60.5L59.627 75l-7.589-22.856M31.914 133l128.172-74m-19.258-7.356L133.239 74.5l23.589 4.856m-104.789 60.5L59.627 117l-23.589-4.856"/></svg>
